packages/icons/svgs/duotone/Source=c-question.svg

<svg width="24" height="24" viewBox="0 0 24 24" fill="none" xmlns="http://www.w3.org/2000/svg">
<g clip-path="url(#clip0_821_781)">
<path opacity="0.5" fill-rule="evenodd" clip-rule="evenodd" d="M12 2C6.47715 2 2 6.47715 2 12C2 17.5228 6.47715 22 12 22C17.5228 22 22 17.5228 22 12C22 6.47715 17.5228 2 12 2ZM0 12C0 5.37258 5.37258 0 12 0C18.6274 0 24 5.37258 24 12C24 18.6274 18.6274 24 12 24C5.37258 24 0 18.6274 0 12Z" fill="black" style="fill:black;fill-opacity:1;"/>
<path d="M12 19C12.5523 19 13 18.5523 13 18C13 17.4477 12.5523 17 12 17C11.4477 17 11 17.4477 11 18C11 18.5523 11.4477 19 12 19Z" fill="black" style="fill:black;fill-opacity:1;"/>
<path fill-rule="evenodd" clip-rule="evenodd" d="M12.8824 7.019C12.0664 6.9424 11.1017 7.10148 10.2572 7.47467C9.75206 7.6979 9.16158 7.46936 8.93834 6.96421C8.7151 6.45905 8.94364 5.86857 9.44879 5.64533C10.5843 5.14352 11.8906 4.9171 13.0693 5.02775C14.2236 5.13611 15.4508 5.5953 16.1207 6.67933C17.3745 8.70831 16.3621 10.883 14.6875 12.3019C13.1694 13.5882 13 14.0072 13 14.5C13 15.0523 12.5523 15.5 12 15.5C11.4477 15.5 11 15.0523 11 14.5C11 12.9928 11.9126 12.0318 13.3945 10.7761C14.7199 9.65302 14.9155 8.53368 14.4193 7.73067C14.2142 7.3987 13.7229 7.09789 12.8824 7.019Z" fill="black" style="fill:black;fill-opacity:1;"/>
</g>
<defs>
<clipPath id="clip0_821_781">
<rect width="24" height="24" fill="white" style="fill:white;fill-opacity:1;"/>
</clipPath>
</defs>
</svg>

<svg xmlns="http://www.w3.org/2000/svg" width="24" height="24" viewBox="0 0 24 24"><g clip-path="url(#a)"><path fill-rule="evenodd" d="M12 2C6.477 2 2 6.477 2 12s4.477 10 10 10 10-4.477 10-10S17.523 2 12 2M0 12C0 5.373 5.373 0 12 0s12 5.373 12 12-5.373 12-12 12S0 18.627 0 12" clip-rule="evenodd" opacity=".55"/><path d="M12 19a1 1 0 1 0 0-2 1 1 0 0 0 0 2"/><path fill-rule="evenodd" d="M12.882 7.019c-.816-.077-1.78.082-2.625.456a1 1 0 0 1-.808-1.83c1.135-.501 2.442-.728 3.62-.617 1.155.108 2.382.567 3.052 1.651 1.254 2.03.241 4.204-1.433 5.623C13.169 13.588 13 14.007 13 14.5a1 1 0 1 1-2 0c0-1.507.913-2.468 2.395-3.724 1.325-1.123 1.52-2.242 1.024-3.045-.205-.332-.696-.633-1.537-.712" clip-rule="evenodd"/></g><defs><clipPath id="a"><path fill="#fff" d="M0 0h24v24H0z"/></clipPath></defs></svg>
